X: 201
T: Visiting Day
B: 204 Favourite Country Dances
N: Published by Straight & Skillern, London ca.1775
F: http://imslp.org/wiki/204_Favourite_Country_Dances_(Various) p.101 # 201
Z: 2014 John Chambers <jc:trillian.mit.edu>
M: 6/8
L: 1/8
K: D
%  - - - - - - - - - - - - - - - - - - - - - - - - -
|:\
a3 faf | g3 ege | fdf edc | d3 D3 |\
dfa ecA | fba ^g3 | aec Ba^g | a3 A3 :|
|:\
e3 cAc | B^GB A3 | a3 fdf | ece d3 |\
b3 ege | a3 dfd | g2f edc | d3 D3 :|
%  - - - - - - - - - - - - - - - - - - - - - - - - -
%%begintext align
%% Turn Right hands and cast off one Cu. .| turn
%% Left hands and cast up again .|. Cross over and
%% half figure :|. right and left at top :|:
%%endtext

%%sep 1 1 500
%%sep 1 1 500
